X: 1
T: the Hon. Mr. Ramsay Maule's Favourite
C: Nathaniel Gow
R: jig
Z: 2006 John Chambers <jc:trillian.mit.edu>
B: Pinewoods Alternates
B: Gow Collection
M: 6/8
L: 1/8
K: Em
F \
| "Em"G>AB E2E | E<B,E E2F | "G"G>AB "Am"cAF | "Em"BGE "Bm"AFD \
| "Em"G>AB E2E | E<B,E E>FG/A/ | Beg "B"fb^d | "Em"e3 E2 :|
f \
| "Em"g>ab e2e | "B"g2f "Em"eBe | e>fg/a/ bge | bge "D"afd \
| "Em"g>ab e2e | "B"g2f "Em"eBA | "Am"G>FE "B"B2^d | "Em"e2E E2 |]
f \
| "Em"gab e2e | "B"{f}g2f "Em"eBG | EGB GBe | eBG "D"AFD \
| "Em"G>AB E2E | "Am"cAG "B"FAc | "Em"B>AG "B"AGF | "Em"GEE E2 |]
